X: 1479
T: Andrew Carr
R: slip jig
M: 9/8
K: Gmajor
|:B2d dBG dBG|B2e efg f2A|B2d def efg|D2G GAB A2G:|
|:g2d dBG dBG|g2e eae f2d|gfe dBd def|g2G GAB A2G:|

